X: 100
M:6/8
L:1/8
K:F
uC|\
|:ub|\
agf gfe | fcA F2b | agf gBA | {c}B>AB G2b |
agf gfe | fed cBA | Bdg Acf | {f}ede f2 H:|


